X:1
T:Inclina cor meum
T:Philippe Rogier (c1561-1596) Edited by Jonathan Goodliffe and Mick Swithinbank
T:The Bible, Psalm 118 verses 36 and 37
T:Inclina cor meum
T:Motet
T:Copyright © 
T:Copyright © 
T:Copyright © 
T:Copyright © 
T:Copyright © 
C:Philippe Rogier (c1561-1596)
C:Edited by Jonathan Goodliffe and Mick Swithinbank
Z:The Bible, Psalm 118
Z:verses 36 and 37
Z:Copyright ©
%%score [ 1 2 3 4 ]
L:1/8
M:2/2
K:F
V:1 treble nm="Cantus" snm="C."
V:2 treble-8 transpose=-12 nm="Altus" snm="A."
V:3 treble-8 transpose=-12 nm="Tenor" snm="T."
V:4 bass nm="Bassus" snm="B."
V:1
 z8 | z8 | z8 | z8 | z8 | z8 | z8 | G4 G4 | F6 D2 | _E4 D4- | D4 z2 D2 | E2 E2 E2 ^F2 | G2 D3 EFG | %13
w: |||||||In- cli-|na cor|me- um,|_ in|te- sti- mo- ni-|a tu- * * *|
 AF B3 A G2- | G2 ^F2 G4 | z2 G2 A2 A2 | A2 B2 cBAG | ^F2 G3 F F2 | G3 ^F G2 A2 | D2 d2 d4 | %20
w: |* * a,|in te- sti-|mo- ni- a _ _ _|_ tu- * a,|_ _ _ tu-|a, in- cli-|
 c6 A2 | B8 | A4 A2 A2- | AGFE D2 d2 | d2 c2 A2 A2 | =B3 B c4- | c4 z2 B2 | B2 A2 F4 | G2 A4 A2 | %29
w: na cor|me-|um, me- um|_ _ _ _ _ et|non in a- va-|ri- ti- am,|_ et|non in a-|va- ri- ti-|
 D2 d2 d2 c2 | A2 =B2 c2 B2 | A2 A2 A2 G2 | E2 G2 F3 E/D/ | E2 E2 D2 d2 | c6 B2 | A2 B2 G2 G2 | %36
w: am, et non in|a- va- ri- ti-|am, et non in|a- va- ri- * *|* ti- am. A-|ver- te|o- cu- los me-|
 B4 z4 | z2 _e2 d3 c | =B2 c2 A2 A2 | G4 z2 G2 | A3 A B4 | F3 G AB c2- | c2 B2 A2 GF | G4 F4- | %44
w: os,|a- ver- te|o- cu- los me-|os, ne|vi- de- ant|va- * * * *|* ni- ta- * *|* tem,|
 F8 | z8 | _e4 d4- | d2 c2 =B2 c2 | A2 A2 G4 | F4 z4 | z2 G2 A3 A | B4 F3 G | AB c3 B B2- | %53
w: _||a- ver-|* te o- cu-|los me- os,|_|ne vi- de-|ant va- *|* * * ni- ta-|
 B2 AG A B2 A | B2 F3 G A2- | A2 G2 F2 ED | _E4 D2 F2 | B,2 F3 _E D2 | C4 z2 F2 | F2 C2 D_EFG | %60
w: |tem, va- * *|* ni- ta- * *|* tem, va-|ni- ta- * *|tem, in|vi- a tu- * * *|
 AF B4 A2 | G4 z2 G2 | F2 F2 E4 | DEFG AF G2- | GF FE/D/ E4 | F3 E D4- | D4 z2 d2 | B2 B2 A4 | %68
w: |a, vi-|vi- fi- ca|me, _ _ _ _ _ _|_ _ _ _ _ _||* vi-|vi- fi- ca|
 B2 B2 B2 F2 | GABc d4 | G4 z2 G2 | F2 F2 _E4 | D2 d2 c>c B2 | A4 z2 c2 | B2 B2 AG/F/ E2 | %75
w: me, in vi- a|tu- * * * *|a, vi-|vi- fi- ca|me, vi- vi- fi- ca|me, vi-|vi- fi- ca _ _ _|
 FEDC D4- | D4 z4 | z4 C4 | D2 E2 FGAB | cd e3 d d2- | d2 ^c2 d4 | z4 z2 B2 | A2 A2 GF/G/ A2- | %83
w: me, _ _ _ _|_|in|vi- a tu- * * *||* * a|vi-|vi- fi- ca _ _ _|
 AG G4 ^F2 | G16 |] %85
w: _ _ _ _|me.|
V:2
 z8 | z8 | d4 d4 | c6 A2 | B8 | A3 B cA d2 | G4 A2 A2 | B2 B2 B2 c2 | d8 | G3 A Bcdc | B2 AG A4 | %11
w: ||In- cli-|na cor|me-|um, _ _ _ _|me- um in|te- sti- mo- ni-|a|tu- * * * * *||
 G4 A4 | d8 | d8 | c2 A2 BAGA | Bcde f3 e/d/ | cA d4 c2 | z2 d2 d4 | c6 A2 | B4 G2 d2 | %20
w: a, _|in-|cli-|na cor me- * * *||* * * um,|in- cli-|na cor|me- um in|
 e2 e2 e2 f2 | g2 d4 e2- | ed d4 ^c2 | d2 d2 dcBA | G2 g2 g2 f2 | d2 f2 e3 d | ec f3 e d2- | %27
w: te- sti- mo- ni-|a tu- a,|_ _ tu- *|a, tu- a, _ _ _|_ et non in|a- va- ri- *||
 d2 ^c2 d2 d2 | d2 c2 A2 A2 | f2 ed f2 e2 | fe g3 f/e/de | f3 e/d/ c4 | z8 | g4 f4- | f2 e2 e3 d | %35
w: * ti- am, et|non in a- va-|ri- * * * ti-|am. _ _ _ _ _ _|_ _ _ _||A- ver-|* te o- cu-|
 fe dc/B/ c2 B2 | f3 e fg a2- | ag g4 ^f2 | gfed c4 | z2 d2 e3 e | f6 Bc | d_e f4 !courtesy!=e2 | %42
w: los _ _ _ _ _ me-|os, _ _ _ _|_ _ _ me-|os, _ _ _ _|ne vi- de-|ant va- *|* * * ni-|
 cd e3 d d2- | d2 c2 d2 d2 | d3 _e f2 FG | AB c3 B B2- | B2 A2 B2 Bc | d_e f2 d2 g2- | %48
w: ta- * * * *|* * tem, ne|vi- de- ant va- *|* * * ni- ta-|* * tem, va- *|* * * ni- ta-|
 g2 ^f2 g2 G2 | A3 A BF A2- | AG G4 ^F2 | G2 Bc de f2- | f2 _e2 d2 cB | c8 | B4 A4 | z8 | %56
w: * * tem, ne|vi- de- ant _ va-|* * ni- ta-|tem, va- * * * *|* ni- ta- * *||tem, _||
 z2 c2 d3 _e | f2 Bc d_e f2- | f2 _e2 d2 cB | c4 f4 | F4 G2 A2 | Bcde fd e2- | ed d4 ^c2 | %63
w: ne vi- de-|ant va- * * * *|* ni- ta- * *|* tem|in vi- a|tu- * * * * * *||
 d4 z2 c2 | B2 B2 A4 | D2 F2 G2 A2 | Bcde fg a2- | a2 g4 ^f2 | g4 f4 | _e2 g2 f2 f2 | _e4 d2 G2 | %71
w: a, vi-|vi- fi- ca|me in vi- a|tu- * * * * * *||a, tu-|a, vi- vi- fi-|ca me, _|
 z2 F2 G2 A2 | Bcd_e fc e2- | ed d4 c2 | d4 z2 c2 | B2 B2 A4 | B2 F2 G2 A2 | Bcde f2 f2 | %78
w: in vi- a|tu- * * * * * *||a vi-|vi- fi- ca|me, in vi- a|tu- * * * a, in|
 f2 c2 defg | a2 gg f2 f2 | e4 f2 F2 | G2 A2 B2 F2 | z2 f2 e2 e2 | d8 | d16 |] %85
w: vi- a tu- * * *|* a, vi- vi- fi-|ca me, in|* a tu- a|vi- vi- fi-|ca|me.|
V:3
 z8 | z8 | z8 | z8 | z2 G2 G4 | F6 D2 | _E4 D4 | z4 z2 G2 | A2 A2 A2 =B2 | c2 G3 ABc | %10
w: ||||In- cli-|na cor|me- um|in|te- sti- mo- ni-|a tu- * * *|
 de f3 e d2- | d2 cB c2 A2 | B2 B2 B2 A2 | F2 G2 B4 | A4 GABc | d4 z2 c2 | c2 B2 G4 | A2 B4 A2 | %18
w: ||a, et non in|a- va- ri-|ti- am, _ _ _|_ et|non in a-|va- ri- ti-|
 G4 z4 | z8 | z2 A2 A4 | G6 E2 | F4 E4 | z2 A2 B2 B2 | B2 c2 d4 | d4 G2 G2 | G2 F2 D2 F2 | %27
w: am,||in- cli-|na cor|me- um|in te- sti-|mo- ni- a|tu- a, et|non in a- va-|
 E3 E D4 | z2 E2 F2 F2 | F2 G2 A2 AB | c2 d2 z2 d2 | d2 c2 A2 c2 | cB/A/ GA BA d2- | d2 c2 d4 | %34
w: ri- ti- am,|in te- sti-|mo- ni- a tu- *|* a, et|non in a- va-|ri- * * * * * * *|* ti- am.|
 z8 | z4 _e4 | d6 c2 | =B2 c2 A2 A2 | G4 z2 A2 | =B3 B c2 c2- | cc c2 d4 | z2 B2 A4- | %42
w: |A-|ver- te|o- cu- los me-|os, ne|vi- de- ant va-|* ni- ta- tem,|a- ver-|
 A2 G2 ^F2 G2 | _E2 E2 D4 | z2 B2 A4- | A2 G2 F2 G2 | _E2 E2 F4 | z4 z2 c2 | d3 d _e2 Bc | %49
w: * te o- cu-|los me- os,|a- ver-|* te o- cu-|los me- os,|ne|vi- de- ant va- *|
 d_e f4 e2 | d2 cB c4 | B8 | z8 | z4 z2 c2 | d3 _e f2 FG | AB c3 B B2- | B2 A2 B2 B2 | %57
w: * * * ni-|ta- * * *|tem,||ne|vi- de- ant va- *|* * * * ni-|* ta- tem, ne|
 d3 _e f2 FG | AB c3 B B2- | B2 A2 B2 d2 | c2 d2 d4- | d4 z4 | z2 F2 G2 A2 | Bcde fd e2- | %64
w: vi- de- ant va- *|* * * ni- ta-|* tem, va- ni-|ta- * tem,|_|in vi- a|tu- * * * * * *|
 ed d4 ^c2 | d4 z4 | z2 B2 B2 F2 | GABc d4 | G2 _e2 d2 d2 | c2 BA B4 | c2 c2 B2 B2 | BA/G/ AB c4 | %72
w: |a,|in vi- a|tu- * * * *|a vi- vi- fi-|ca _ _ _|me, vi- fi- ca|_ _ _ _ _ _|
 F4 z2 G2 | F2 F2 E4 | D2 F2 F2 C2 | D4 D4 | z2 d2 c2 c2 | B4 A4 | z4 z2 d2 | c2 c2 A4 | A6 f2 | %81
w: me, vi-|vi- fi- ca|me, in vi- a|tu- a|vi- vi- fi-|ca me,|vi-|vi- fi- ca|me, vi-|
 _e2 e2 d4- | d2 c2 z2 c2 | B2 B2 A4 | G16 |] %85
w: vi- fi- ca|_ me, vi-|vi- fi- ca|me.|
V:4
 D,4 D,4 | C,6 A,,2 | B,,4 G,,2 D,2 | E,2 E,2 E,2 ^F,2 | G,2 G,,3 A,,B,,C, | D,E,F,G, A,F, B,2- | %6
w: In- cli-|na cor|me- um in|te- sti- mo- ni-|a tu- * * *||
 B,A, G,4 ^F,2 | G,4 _E,4 | D,8 | C,4 z2 G,2 | G,2 F,2 D,2 F,2 | E,3 D, C,2 D,2 | G,,A,,B,,C, D,4 | %13
w: |a, _|tu-|a. Et|non in a- va-|ri- * * ti-|am, _ _ _ _|
 z8 | z4 z2 G,2 | G,4 F,4- | F,2 D,2 _E,4 | D,4 z2 D,2 | E,2 E,2 E,2 ^F,2 | G,4 B,4 | %20
w: |in-|cli- na|_ cor me-|um, in|te- sti- mo- ni-|a tu-|
 A,2 A,,2 A,,2 D,2 | G,,4 G,,4 | F,,3 G,, A,,2 A,,2 | D,4 z4 | z4 D,4 | D,4 C,4- | C,2 A,,2 B,,4 | %27
w: a, et non in|a- va-|ri- * * ti-|am,|in-|cli- na|_ cor me-|
 G,,2 A,,2 B,,2 B,,2 | B,,2 C,2 D,4 | B,,4 A,,2 A,2 | A,2 G,2 E,2 G,2 | F,6 E,D, | C,2 E,2 D,4 | %33
w: um in te- sti-|mo- ni- a|tu- a, et|non in a- va-|ri- * *|* ti- am,|
 z4 B,4 | A,6 G,2 | F,2 G,2 _E,2 E,2 | B,,3 C, D,E, F,2 | G,2 C,2 D,4 | z2 E,2 F,3 F, | %39
w: a-|ver- te|o- cu- los me-|os, _ _ _ _|me- * os,|ne vi- de-|
 G,4 C,3 C, | F,4 B,,4- | B,,4 z4 | z8 | z2 G,2 A,3 A, | B,2 B,,C, D,_E, F,2- | %45
w: ant va- ni-|ta- tem,|_||ne vi- de-|ant va- * * * *|
 F,2 _E,2 D,2 C,B,, | C,4 B,,4 | z8 | z4 _E,4 | D,6 C,2 | =B,,2 C,2 A,,2 A,,2 | G,,4 z4 | z4 D,4 | %53
w: * ni- ta- * *|* tem,||a-|ver- te|o- cu- los me-|os|ne|
 _E,3 E, F,4 | B,,3 C, D,_E, F,2- | F,2 _E,2 D,2 C,B,, | C,4 B,,4 | B,,6 B,,2 | F,8- | F,4 B,,4 | %60
w: vi- de- ant|va- * * * *|* ni- ta- * *|* tem,|va- ni-|ta-|* tem.|
 z2 B,,2 B,,2 F,,2 | G,,A,,B,,C, D,2 C,2 | D,4 z4 | z8 | z8 | B,,4 B,,2 F,,2 | G,,A,,B,,C, D,4 | %67
w: In vi- a|tu- * * * * *|a.|||in vi- a|tu- * * * *|
 G,,4 z4 | z8 | z2 _E,2 D,2 D,2 | C,4 G,,2 _E,2 | D,2 D,2 C,4 | B,,4 z4 | z2 F,,2 G,,2 A,,2 | %74
w: a||vi- vi- fi-|ca me, vi-|vi- fi- ca|me,|in vi- a|
 B,,C,D,E, F,G, A,2- | A,G, G,4 ^F,2 | G,2 D,2 E,2 F,2 | G,4 F,4 | z4 z2 F,2 | F,2 C,2 D,E,F,G, | %80
w: tu- * * * * * *||a vi- vi- fi-|ca me,|in|vi- a tu- * * *|
 A,4 D,2 D,2 | C,2 C,2 B,,3 A,,/G,,/ | F,,G,,A,,B,, C,2 B,,A,, | B,,3 C, D,4 | G,,16 |] %85
w: * a vi-|vi- fi- ca _ _|_ _ _ _ _ _ _||me.|

